X:314
N:See #313 for more history
T:Song of the Blackbird, The
A:Down
O:Irish
R:song air
H:Mr. MacGowan traced the history of this air for at least a hundred years.
L:1/8
M:C
K:G
E2|\
A3 G A2B2|e3 d e2f2|g3 f g2d2|B3 A GABc|
A4 AB d2|e3 f gedc|B3 c A2A2|A6:|e2|
a3 g a2b2|a3 g e3 f|g3 f g2a2|g3 e d3 d|
e4 a2 b2|c'3 b aged|e4 a2 ab|a4 z2 e2|
{ge}b3 a gabg|a3 g e2 d2|e3 f gedc|B3 A GABc|
A4 AB d2|e3 f gfed|B3 c A2 A2|A6||


